flaticon/hand-gestures/sprout-1.svg

<svg xmlns="http://www.w3.org/2000/svg" width="32" height="32" viewBox="0 0 24 24">
    <path d="M 23.777344 14.523438 C 23.140625 13.675781 22.503906 13.574219 21.152344 14.195312 L 20.8125 13.199219 L 20.734375 13.121094 C 20.492188 12.921875 19.734375 12.359375 19.414062 12.238281 C 19.011719 12.121094 16.609375 12.160156 16.050781 12.238281 C 15.929688 12.199219 15.609375 11.878906 15.410156 11.71875 C 14.957031 11.304688 14.46875 10.851562 14.007812 11.039062 L 14.007812 9.398438 C 14.007812 8.886719 14.300781 8.46875 14.734375 8.289062 L 14.730469 8.316406 L 17.292969 7.957031 C 19.613281 7.597656 21.414062 5.796875 21.773438 3.433594 L 22.175781 0.871094 L 19.613281 1.273438 C 17.25 1.632812 15.492188 3.433594 15.128906 5.753906 L 14.871094 7.425781 C 14.550781 7.476562 14.257812 7.605469 14.007812 7.789062 L 14.007812 3.792969 C 14.007812 2.234375 15.25 0.992188 16.8125 0.992188 C 17.050781 0.992188 17.210938 0.832031 17.210938 0.59375 C 17.210938 0.351562 17.050781 0.191406 16.8125 0.191406 C 15.269531 0.191406 13.960938 1.144531 13.445312 2.5 C 12.9375 1.824219 12.128906 1.394531 11.207031 1.394531 C 10.96875 1.394531 10.808594 1.554688 10.808594 1.792969 C 10.808594 2.035156 10.96875 2.195312 11.207031 2.195312 C 12.328125 2.195312 13.210938 3.074219 13.210938 4.195312 L 13.210938 10.414062 C 13.066406 10.332031 12.914062 10.273438 12.75 10.234375 L 12.488281 8.597656 C 12.128906 6.234375 10.328125 4.476562 8.003906 4.113281 L 5.445312 3.714844 L 5.84375 6.277344 C 6.203125 8.597656 8.003906 10.398438 10.328125 10.71875 L 12.804688 11.105469 C 12.90625 11.164062 12.992188 11.242188 13.058594 11.335938 C 12.558594 11.453125 11.847656 11.597656 10.925781 11.761719 C 10.726562 11.800781 10.566406 11.839844 10.488281 11.839844 C 10.085938 11.761719 7.804688 11.121094 6.246094 10.640625 L 5.925781 10.558594 L 4.980469 12.421875 C 4.09375 12.253906 3.269531 12.210938 2.800781 12.203125 L 2.800781 11 L 0 11 L 0 23.808594 L 2.800781 23.808594 L 2.800781 22.605469 L 8.003906 22.605469 C 8.765625 22.605469 11.648438 22.566406 12.527344 22.488281 L 15.691406 21.6875 C 15.851562 21.648438 16.050781 21.648438 16.210938 21.605469 C 16.691406 21.527344 17.132812 21.285156 17.53125 20.925781 L 23.574219 16.121094 C 24.054688 15.722656 24.136719 15.003906 23.777344 14.523438 Z M 19.691406 2.113281 L 21.175781 1.875 L 20.933594 3.355469 C 20.613281 5.355469 19.09375 6.875 17.132812 7.15625 L 16.273438 7.296875 L 19.09375 4.476562 C 19.253906 4.316406 19.253906 4.074219 19.09375 3.914062 C 18.933594 3.753906 18.691406 3.753906 18.53125 3.914062 L 15.765625 6.679688 L 15.890625 5.914062 C 16.210938 3.914062 17.730469 2.394531 19.691406 2.113281 Z M 6.683594 6.15625 L 6.445312 4.675781 L 7.925781 4.914062 C 9.925781 5.234375 11.449219 6.757812 11.726562 8.71875 L 11.851562 9.480469 L 9.488281 7.117188 C 9.328125 6.957031 9.085938 6.957031 8.925781 7.117188 C 8.765625 7.277344 8.765625 7.515625 8.925781 7.675781 L 11.347656 10.097656 L 10.488281 9.957031 C 8.484375 9.636719 6.964844 8.117188 6.683594 6.15625 Z M 6.246094 11.359375 C 10.246094 12.558594 10.40625 12.519531 10.527344 12.480469 C 10.566406 12.480469 10.726562 12.441406 10.96875 12.398438 C 11.894531 12.222656 12.648438 12.082031 13.210938 11.960938 L 13.210938 13.402344 C 13.210938 13.640625 13.367188 13.800781 13.609375 13.800781 C 13.847656 13.800781 14.007812 13.640625 14.007812 13.402344 L 14.007812 11.746094 C 14.070312 11.722656 14.125 11.703125 14.167969 11.679688 C 14.328125 11.761719 14.609375 12.039062 14.808594 12.199219 C 15.289062 12.640625 15.691406 13 16.132812 12.921875 C 16.609375 12.839844 18.851562 12.839844 19.132812 12.921875 C 19.292969 13 19.734375 13.320312 20.132812 13.601562 L 20.441406 14.5625 L 17.132812 16.601562 C 16.664062 16.875 15.628906 16.957031 14.648438 16.964844 C 14.851562 16.601562 14.769531 16.164062 14.410156 15.640625 C 13.769531 14.722656 12.6875 14.160156 11.527344 14.160156 L 9.964844 14.160156 C 9.125 14.160156 8.324219 13.921875 7.683594 13.441406 C 7.203125 13.082031 6.566406 12.761719 5.765625 12.558594 Z M 2 23.007812 L 0.800781 23.007812 L 0.800781 11.800781 L 2 11.800781 Z M 23.09375 15.5625 L 17.011719 20.285156 L 16.972656 20.324219 C 16.730469 20.605469 16.410156 20.765625 16.050781 20.804688 C 15.890625 20.847656 15.769531 20.847656 15.609375 20.847656 L 12.367188 21.648438 C 11.609375 21.726562 8.804688 21.804688 8.003906 21.804688 L 2.800781 21.804688 L 2.800781 13 C 3.203125 13 3.875 13.035156 4.605469 13.160156 L 4.601562 13.160156 L 5.125 13.28125 C 5.234375 13.300781 5.34375 13.320312 5.445312 13.34375 C 6.0625 13.515625 6.660156 13.761719 7.125 14.121094 C 7.886719 14.683594 8.847656 15.003906 9.886719 15.003906 L 11.449219 15.003906 C 12.367188 15.003906 13.207031 15.402344 13.730469 16.164062 C 13.890625 16.402344 13.929688 16.644531 13.890625 16.722656 C 13.84375 16.796875 13.75 16.855469 13.625 16.898438 C 13.429688 16.960938 13.15625 17.003906 12.808594 17.003906 L 12.808594 17.039062 C 12.796875 17.042969 12.78125 17.042969 12.769531 17.042969 L 8.964844 17.042969 C 7.726562 17.042969 6.964844 17.644531 6.964844 18.644531 C 6.964844 18.882812 7.125 19.042969 7.363281 19.042969 C 7.605469 19.042969 7.765625 18.882812 7.765625 18.644531 C 7.765625 18.445312 7.765625 17.84375 8.964844 17.84375 L 12.847656 17.84375 C 12.890625 17.84375 12.949219 17.84375 13.007812 17.84375 C 14.355469 17.871094 15.644531 17.859375 16.601562 17.675781 C 17.019531 17.613281 17.378906 17.527344 17.652344 17.402344 L 21.09375 15.28125 L 21.453125 15.082031 L 21.4375 15.035156 C 22.726562 14.441406 22.882812 14.644531 23.175781 15.082031 C 23.253906 15.203125 23.253906 15.441406 23.09375 15.5625 Z M 23.09375 15.5625"/>
</svg>

<svg xmlns="http://www.w3.org/2000/svg" width="32" height="32" viewBox="0 0 24 24">
    <path d="M23.777 14.523c-.636-.847-1.273-.949-2.625-.328l-.34-.996-.078-.078c-.242-.2-1-.762-1.32-.883-.402-.117-2.805-.078-3.363 0-.121-.039-.442-.36-.64-.52-.454-.413-.942-.866-1.403-.679V9.4c0-.512.293-.93.726-1.11l-.004.027 2.563-.359c2.32-.36 4.121-2.16 4.48-4.523L22.176.87l-2.563.402c-2.363.36-4.12 2.16-4.484 4.48l-.258 1.673c-.32.05-.613.18-.863.363V3.793c0-1.559 1.242-2.8 2.805-2.8.238 0 .398-.161.398-.4 0-.241-.16-.402-.398-.402A3.588 3.588 0 0 0 13.444 2.5a2.779 2.779 0 0 0-2.238-1.105c-.238 0-.398.16-.398.398 0 .242.16.402.398.402 1.121 0 2.004.88 2.004 2v6.22a1.74 1.74 0 0 0-.461-.18l-.262-1.637c-.36-2.364-2.16-4.121-4.484-4.485l-2.559-.398.399 2.562c.36 2.32 2.16 4.121 4.484 4.442l2.477.386a.799.799 0 0 1 .254.23c-.5.118-1.211.263-2.133.427-.2.039-.36.078-.438.078-.402-.078-2.683-.719-4.242-1.2l-.32-.081-.946 1.863c-.886-.168-1.71-.211-2.18-.219V11H0v12.809h2.8v-1.204h5.204c.762 0 3.644-.039 4.523-.117l3.164-.8c.16-.04.36-.04.52-.083.48-.078.922-.32 1.32-.68l6.043-4.804c.48-.398.563-1.117.203-1.598zm-4.086-12.41l1.485-.238-.242 1.48c-.32 2-1.84 3.52-3.801 3.801l-.86.14 2.82-2.82a.39.39 0 0 0 0-.562.39.39 0 0 0-.562 0L15.766 6.68l.125-.766c.32-2 1.84-3.52 3.8-3.8zM6.684 6.156l-.239-1.48 1.48.238c2 .32 3.524 1.844 3.802 3.805l.125.761-2.364-2.363a.39.39 0 0 0-.562 0 .385.385 0 0 0 0 .559l2.422 2.422-.86-.141c-2.004-.32-3.523-1.84-3.804-3.8zm-.438 5.203c4 1.2 4.16 1.16 4.281 1.121.04 0 .2-.039.442-.082.926-.175 1.68-.316 2.242-.437v1.441c0 .239.156.399.398.399.239 0 .399-.16.399-.399v-1.656c.062-.023.117-.043.16-.066.16.082.441.36.64.52.481.44.883.8 1.325.722.476-.082 2.719-.082 3 0 .16.078.601.398 1 .68l.308.96-3.308 2.04c-.469.273-1.504.355-2.485.363.204-.363.122-.8-.238-1.324a3.519 3.519 0 0 0-2.883-1.48H9.965c-.84 0-1.64-.24-2.281-.72-.48-.359-1.118-.68-1.918-.882zM2 23.008H.8V11.8H2zm21.094-7.445l-6.082 4.722-.04.04a1.39 1.39 0 0 1-.921.48c-.16.043-.281.043-.442.043l-3.242.8c-.758.079-3.562.157-4.363.157H2.8V13c.402 0 1.074.035 1.804.16h-.003l.523.121c.11.02.219.04.32.063.617.172 1.215.418 1.68.777a4.632 4.632 0 0 0 2.762.883h1.562c.918 0 1.758.398 2.281 1.16.16.238.2.48.16.559-.046.074-.14.132-.265.175a2.74 2.74 0 0 1-.816.106v.035c-.012.004-.028.004-.04.004H8.966c-1.238 0-2 .602-2 1.602 0 .238.16.398.398.398.242 0 .403-.16.403-.398 0-.2 0-.801 1.199-.801h4.043c1.347.027 2.637.015 3.594-.168.418-.063.777-.149 1.05-.274l3.442-2.12.36-.2-.017-.047c1.29-.594 1.446-.39 1.739.047.078.121.078.36-.082.48zm0 0"/>
</svg>
